modules/themify-icons/icons/smallcap.svg

<?xml version="1.0" encoding="utf-8"?>
<!-- Generated by IcoMoon.io -->
<!DOCTYPE svg PUBLIC "-//W3C//DTD SVG 1.1//EN" "http://www.w3.org/Graphics/SVG/1.1/DTD/svg11.dtd">
<svg version="1.1" xmlns="http://www.w3.org/2000/svg" xmlns:xlink="http://www.w3.org/1999/xlink" width="17" height="17" viewBox="0 0 17 17">
<g>
</g>
	<path d="M6 5.925h1v2h-1v-1h-2v8h1v1h-3v-1h1v-8h-2v1h-1v-2h6zM16 2h-10v2.577h1v-1.577h4v12h-1v1h3v-1h-1v-12h4v1.577h1v-2.577h-1z" fill="#000000" />
</svg>

<svg xmlns="http://www.w3.org/2000/svg" width="17" height="17" viewBox="0 0 17 17"><path d="M6 5.925h1v2H6v-1H4v8h1v1H2v-1h1v-8H1v1H0v-2h6zM16 2H6v2.577h1V3h4v12h-1v1h3v-1h-1V3h4v1.577h1V2h-1z"/></svg>
